X:1
T:Title
%%score { ( 1 4 ) | ( 2 3 ) }
L:1/8
M:6/8
K:A
V:1 treble nm="Grand Piano"
V:4 treble 
V:2 treble 
V:3 treble 
V:1
 z3 z2[Q:1/4=81] [Ec] | [Ec]>dc B2 B | B>cB A2 A | A>BA G2 F | E>F^D E2 c | c>dc B2 B | B>cB A2 F | %7
 z3 .B3 |[M:5/8] cA[DEB] [CEA]2 |[M:1/8] [B,GB] |[M:3/4] [B,GB]2 GG FE | E^D D D2 [DB] | %12
 [^Dc]2 [A,DF][A,DF] [EG][EA] | AG G G2 [GB] | [GB]A GG FE | EA c e2 c | [GB][Ac] [GB]G A[B,EG] | %17
[M:5/8] ^D-[DG][A,DF] [G,E]2 |[M:1/8] [G,E] |[M:3/4] [DGB]2 [DGB]G- [G^A][DGB] | .[Ec]2 z2 z2 | %21
 z F [B,EG]E- [EB][Ec] | cd c B2 B | c=c ^c d2 c | B^A [FB] F2 F | z c [EA][DF] [Fd][FB] | %26
[M:11/16] Ge3/2[DEG][CEA]-<[CEA] |[M:1/8] [B,GB] |[M:3/4] [B,GB]2 GG FE | E^D D D2 [DB] | %30
 [^Dc]2 [A,DF][A,DF] [EG][EA] | AG G G2 [GB] | [GB]A GG FE | EA c e2 c | [GB][Ac] [GB]G A[B,EG] | %35
[M:5/8] ^D-[DG][A,DF] [G,E]2 |[M:1/8] [G,E] |[M:3/4] [DGB]2 [DGB]G- [G^A][DGB] | .[Ec]2 z2 z2 | %39
 z F [B,EG]E- [EB][Ec] | cd c B2 B | c=c ^c d2 c | B^A [FB] F2 F | z c [EA][DF] [Fd][FB] | %44
[M:11/16] Ge3/2[DEG][CEA]-<[CEA] |] %45
V:2
 z3 z2 A, | z z/ F/[K:bass][A,E] [E,G,E]2 [E,G,E] | D>E[E,G,D] [A,C]2 [A,CE] | %3
 C>D[E,CE] [E,B,E]2 [A,C] | [B,,B,]->[B,,A,B,][B,,F,B,] [E,G,B,]2[K:treble] [A,E] | %5
 E>F[K:bass][A,E] [E,G,D]2 [E,G,D] | D>E[E,G,D] [F,A,C]2 [D,A,D] | [C,A,]>B,,A,, [F,D]A,[B,,B,] | %8
[M:5/8] A, z z z2 |[M:1/8] E, |[M:3/4] z2 z B, z2 | [F,A,B,]2 [F,A,B,] [F,A,B,]2 [B,,A,] | %12
 [B,,A,]2 .B,,2 G,[B,,F,] | CB, [E,B,E] [E,B,E]2 [E,E] | z F [E,E][E,E]- [E,A,E][E,G,] | %15
 C[CE] [A,CE] [A,CE]2 [A,EA] | z2 z B, z2 |[M:5/8] z B,B,, E,2 |[M:1/8] E, |[M:3/4] E,2 .E,2 CE, | %20
 z D [A,CE] [E,B,E]2 [E,G,] | G,A, D,C, [B,,G,][A,,A,] | [E,E]-[E,B,E] [E,A,E] [E,G,E]2 [E,G,E] | %23
 E^D [A,E] [A,F]2[K:bass] [A,E] | [D,A,]2 [D,A,] [D,A,D]2 [D,A,D] | [C,A,]2 [C,A,] [D,A,]2 [D,D] | %26
[M:11/16] [E,DE]/-[E,DE]-<[E,DE]E,A,,-<A,, |[M:1/8] E, |[M:3/4] z2 z B, z2 | %29
 [F,A,B,]2 [F,A,B,] [F,A,B,]2 [B,,A,] | [B,,A,]2 .B,,2 G,[B,,F,] | CB, [E,B,E] [E,B,E]2 [E,E] | %32
 z F [E,E][E,E]- [E,A,E][E,G,] | C[CE] [A,CE] [A,CE]2 [A,EA] | z2 z B, z2 |[M:5/8] z B,B,, E,2 | %36
[M:1/8] E, |[M:3/4] E,2 .E,2 CE, | z D [A,CE] [E,B,E]2 [E,G,] | G,A, D,C, [B,,G,][A,,A,] | %40
 [E,E]-[E,B,E] [E,A,E] [E,G,E]2 [E,G,E] | E^D [A,E] [A,F]2[K:bass] [A,E] | %42
 [D,A,]2 [D,A,] [D,A,D]2 [D,A,D] | [C,A,]2 [C,A,] [D,A,]2 [D,D] | %44
[M:11/16] [E,DE]/-[E,DE]-<[E,DE]E,A,,-<A,, |] %45
V:3
 x6 | .A,3[K:bass] z3 | .[E,G,]3 z3 | .[E,E]3 z3 | .G,3 z3[K:treble] | .A,3[K:bass] z3 | %6
 .[E,G,]3 z3 | z3 .D,3 |[M:5/8] [E,E]-[E,CE]E, A,,2 |[M:1/8] x | %10
[M:3/4] E,2 [E,B,E][E,E]- [E,A,E][E,G,] | x6 | z2 z .B,,3 | [E,E]2 z2 z2 | [E,E]2 z B, z2 | %15
 A,2 z2 z2 | [E,E]2 [E,E][E,E]- [E,CE]E, |[M:5/8] B,,2 z z2 |[M:1/8] x |[M:3/4] z2 z .E,3 | %20
 E,2 z2 z2 | E,2 z2 z2 | .A,2 z2 z2 | A,2 z2 z2[K:bass] | x6 | x6 |[M:11/16] x11/2 |[M:1/8] x | %28
[M:3/4] E,2 [E,B,E][E,E]- [E,A,E][E,G,] | x6 | z2 z .B,,3 | [E,E]2 z2 z2 | [E,E]2 z B, z2 | %33
 A,2 z2 z2 | [E,E]2 [E,E][E,E]- [E,CE]E, |[M:5/8] B,,2 z z2 |[M:1/8] x |[M:3/4] z2 z .E,3 | %38
 E,2 z2 z2 | E,2 z2 z2 | .A,2 z2 z2 | A,2 z2 z2[K:bass] | x6 | x6 |[M:11/16] x11/2 |] %45
V:4
 x6 | x6 | x6 | x6 | x6 | x6 | x6 | E>[B,DG][CA] z F[Fd] |[M:5/8] x5 |[M:1/8] x |[M:3/4] x6 | x6 | %12
 x6 | x6 | x6 | x6 | x6 |[M:5/8] [A,F] z z z2 |[M:1/8] x |[M:3/4] z2 z [DB] z2 | G-[GB] A G2 E | %21
 E2 z [A,A] z2 | x6 | x6 | F2 z2 z2 | E2 z2 z2 |[M:11/16] x11/2 |[M:1/8] x |[M:3/4] x6 | x6 | x6 | %31
 x6 | x6 | x6 | x6 |[M:5/8] [A,F] z z z2 |[M:1/8] x |[M:3/4] z2 z [DB] z2 | G-[GB] A G2 E | %39
 E2 z [A,A] z2 | x6 | x6 | F2 z2 z2 | E2 z2 z2 |[M:11/16] x11/2 |] %45

